storage/app/icons/phosphoricons/bold/rows-plus-top-bold.svg

<svg xmlns="http://www.w3.org/2000/svg" fill="currentColor" viewBox="0 0 256 256"><path d="M208 156H48a20 20 0 0 0-20 20v24a20 20 0 0 0 20 20h160a20 20 0 0 0 20-20v-24a20 20 0 0 0-20-20m-4 40H52v-16h152Zm4-116H48a20 20 0 0 0-20 20v24a20 20 0 0 0 20 20h160a20 20 0 0 0 20-20v-24a20 20 0 0 0-20-20m-4 40H52v-16h152ZM96 36a12 12 0 0 1 12-12h8v-8a12 12 0 0 1 24 0v8h8a12 12 0 0 1 0 24h-8v8a12 12 0 0 1-24 0v-8h-8a12 12 0 0 1-12-12"/></svg>

<svg xmlns="http://www.w3.org/2000/svg" viewBox="0 0 256 256" fill="currentColor"><path d="M208,156H48a20,20,0,0,0-20,20v24a20,20,0,0,0,20,20H208a20,20,0,0,0,20-20V176A20,20,0,0,0,208,156Zm-4,40H52V180H204Zm4-116H48a20,20,0,0,0-20,20v24a20,20,0,0,0,20,20H208a20,20,0,0,0,20-20V100A20,20,0,0,0,208,80Zm-4,40H52V104H204ZM96,36a12,12,0,0,1,12-12h8V16a12,12,0,0,1,24,0v8h8a12,12,0,0,1,0,24h-8v8a12,12,0,0,1-24,0V48h-8A12,12,0,0,1,96,36Z"/></svg>
